packages/ffe-icons/icons/filled/md/agender.svg

<svg xmlns="http://www.w3.org/2000/svg" height="24" viewBox="0 -960 960 960" width="24"><path d="M480-140.001q-91.538 0-155.768-64.231-64.231-64.23-64.231-155.768 0-84.23 54.808-145.73 54.807-61.5 135.192-72.038v-192.23q0-12.769 8.615-21.384T480-799.997q12.769 0 21.384 8.615t8.615 21.384v192.23q81.385 10.538 135.692 72.038 54.308 61.5 54.308 145.73 0 91.538-64.231 155.768-64.23 64.231-155.768 64.231ZM480-200q58.693 0 102.346-37.077 43.654-37.077 54.193-92.924H323.461q10.539 55.847 54.193 92.924Q421.307-200 480-200ZM323.461-389.999h313.078Q626-445.846 582.346-482.923 538.693-520 480-520q-58.693 0-102.346 37.077-43.654 37.077-54.193 92.924Z"/></svg>

<svg xmlns="http://www.w3.org/2000/svg" height="24" viewBox="0 -960 960 960" width="24"><path d="M480-140q-91.54 0-155.77-64.23T260-360q0-84.23 54.81-145.73 54.81-61.5 135.19-72.04V-770q0-12.77 8.62-21.38Q467.23-800 480-800t21.38 8.62Q510-782.77 510-770v192.23q81.38 10.54 135.69 72.04Q700-444.23 700-360q0 91.54-64.23 155.77T480-140Zm0-60q58.69 0 102.35-37.08Q626-274.15 636.54-330H323.46q10.54 55.85 54.19 92.92Q421.31-200 480-200ZM323.46-390h313.08q-10.54-55.85-54.19-92.92Q538.69-520 480-520t-102.35 37.08Q334-445.85 323.46-390Z"/></svg>
